public/static/img/crypto/BCH.svg

<svg width="48" height="48" viewBox="0 0 48 48" fill="none" xmlns="http://www.w3.org/2000/svg">
<g clip-path="url(#clip0_1150_15589)">
<path d="M47.9282 24.0001C47.9282 37.1906 37.2355 47.883 24.0453 47.883C10.8547 47.883 0.162354 37.1906 0.162354 24.0001C0.162354 10.8098 10.8547 0.117188 24.0453 0.117188C37.2355 0.117188 47.9282 10.8098 47.9282 24.0001Z" fill="#8AC072"/>
<path d="M32.8803 24.5957C33.0402 24.9011 33.138 25.2352 33.168 25.5787C33.1979 25.9222 33.1594 26.2682 33.0546 26.5966C32.9518 26.9258 32.7847 27.2313 32.563 27.4953C32.3412 27.7594 32.0692 27.9768 31.7628 28.1349L25.5372 31.373L23.1155 26.7165L29.341 23.4785C30.6248 22.8109 32.2125 23.312 32.8805 24.5957M27.3404 15.6105C27.6695 15.7134 27.9749 15.8806 28.2389 16.1023C28.503 16.3241 28.7204 16.596 28.8787 16.9023C29.5462 18.1858 29.0444 19.7738 27.7619 20.4415H27.7614L21.5359 23.6796L19.1137 19.0231L25.3399 15.7848C25.6453 15.625 25.9794 15.5274 26.3227 15.4974C26.6661 15.4675 27.012 15.5059 27.3404 15.6105ZM28.3712 12.3464C26.8307 11.8602 25.1928 12.0027 23.7599 12.7481L22.9364 13.1766L20.9226 9.30469L17.9635 10.8435L19.9775 14.7154L17.4517 16.0292L15.4376 12.157L14.729 12.5258L11.8576 14.0192L13.7988 17.7516L10.2999 19.5715L12.0245 22.8878L15.5238 21.068L21.8019 33.1384L18.3026 34.9583L20.0277 38.2747L23.5268 36.4548L25.1651 39.6049L25.874 39.2364L28.7452 37.7428L27.034 34.4529L29.566 33.136L31.2772 36.4261L34.2244 34.8933L32.5129 31.6032L33.3424 31.1719C33.8638 30.9013 34.3433 30.5566 34.7658 30.1485C35.4854 29.4505 36.0191 28.5838 36.3187 27.6272C36.8052 26.0867 36.6626 24.4493 35.917 23.0161C35.1329 21.5086 33.7971 20.4728 32.2853 20.0198C32.7833 18.5211 32.7002 16.8311 31.9156 15.3227C31.1705 13.8895 29.9111 12.8327 28.3714 12.3464" fill="white"/>
</g>
<defs>
<clipPath id="clip0_1150_15589">
<rect width="48" height="48" fill="white"/>
</clipPath>
</defs>
</svg>

<svg width="48" height="48" fill="none" xmlns="http://www.w3.org/2000/svg"><g clip-path="url(#a)"><path d="M47.928 24c0 13.19-10.692 23.883-23.883 23.883C10.855 47.883.162 37.191.162 24 .162 10.81 10.855.117 24.045.117S47.928 10.81 47.928 24Z" fill="#8AC072"/><path d="M32.88 24.596a2.609 2.609 0 0 1 .175 2 2.605 2.605 0 0 1-1.292 1.539l-6.226 3.238-2.421-4.657 6.225-3.238a2.628 2.628 0 0 1 3.54 1.118m-5.54-8.986a2.607 2.607 0 0 1 1.538 1.292 2.629 2.629 0 0 1-1.117 3.54l-6.226 3.238-2.422-4.657 6.226-3.238a2.61 2.61 0 0 1 2-.175Zm1.03-3.264a6.009 6.009 0 0 0-4.611.402l-.824.429-2.013-3.872-2.96 1.539 2.014 3.871-2.525 1.314-2.014-3.872-.709.369-2.871 1.493 1.94 3.733-3.498 1.82 1.724 3.316 3.5-1.82 6.278 12.07-3.5 1.82 1.726 3.317 3.499-1.82 1.638 3.15.709-.369 2.871-1.493-1.711-3.29 2.532-1.317 1.711 3.29 2.947-1.533-1.711-3.29.83-.431a6.018 6.018 0 0 0 2.976-3.545 6.006 6.006 0 0 0-.402-4.61 6.026 6.026 0 0 0-3.632-2.997 6.029 6.029 0 0 0-.37-4.697 6.008 6.008 0 0 0-3.544-2.977" fill="#fff"/></g><defs><clipPath id="a"><path fill="#fff" d="M0 0h48v48H0z"/></clipPath></defs></svg>
